X: 16978
T: Hazel's Fancy
R: jig
M: 6/8
K: Amixolydian
|:e2 A ABd|~e3 dBg|edB ~G3|BAG ~A3|
e2 A ABd|~e3 dBg|edB ~G3|BAG ~A3:|
|:~g3 ged|~e3 dBA|~g3 ged|~e3 ~a3|
~g3 ged|~e3 dBa|gfe dBG|BAG ~A3:|

